X:19
T:Je n'avais pas dix ans que je pechais l'anguille
I:last changed 14/2/2016
F:http://www.campin.me.uk/Music/Edinbal.abc
G:Rond de St Vincent
C:Gilbert Hervieux
M:12/8
L:1/8
%Q:6/8=100
K:ADor
E2E A3 A3 G2G|A2B c2A B3  A2G|F2E A3 A3 G2G|A2B c2A B3 A3:|
A2A c3 c3 B3 |A2A B2A G2F E2E|E2E A3 A3 G2G|A2B c2A B3 A3:|

